X: 20714
Q: "With spirit."
M: 2/4
L: 1/8
K: G
(d>c) |\
(BA)AA | (AG)AA | A<fg>f | (ed)dd |\
dggf | (e>d)cB |
(c>d)ec | (dc)(BA) |\


